sources/design/Outline/ru_bottom_sign.svg

<svg:svg xmlns:cc="http://creativecommons.org/ns#" xmlns:dc="http://purl.org/dc/elements/1.1/" xmlns:inkscape="http://www.inkscape.org/namespaces/inkscape" xmlns:rdf="http://www.w3.org/1999/02/22-rdf-syntax-ns#" xmlns:sodipodi="http://sodipodi.sourceforge.net/DTD/sodipodi-0.dtd" xmlns:svg="http://www.w3.org/2000/svg" xml:space="preserve" width="1000" height="1000" version="1.1" style="clip-rule:evenodd;fill-rule:evenodd;image-rendering:optimizeQuality;shape-rendering:geometricPrecision;text-rendering:geometricPrecision" viewBox="0 0 1000 1000" id="svg10" sodipodi:docname="ru_bottom_sign.svg" inkscape:version="1.0.2 (e86c870879, 2021-01-15)"><svg:metadata id="metadata14"><rdf:RDF><cc:Work rdf:about=""><dc:format>image/svg+xml</dc:format><dc:type rdf:resource="http://purl.org/dc/dcmitype/StillImage" /><dc:title /></cc:Work></rdf:RDF></svg:metadata><sodipodi:namedview pagecolor="#ffffff" bordercolor="#666666" borderopacity="1" objecttolerance="10" gridtolerance="10" guidetolerance="10" inkscape:pageopacity="0" inkscape:pageshadow="2" inkscape:window-width="1920" inkscape:window-height="1007" id="namedview12" showgrid="false" inkscape:zoom="0.56343695" inkscape:cx="447.85495" inkscape:cy="430.9006" inkscape:window-x="1920" inkscape:window-y="0" inkscape:window-maximized="1" inkscape:current-layer="svg10" showguides="true" inkscape:guide-bbox="true" inkscape:document-rotation="0" inkscape:snap-object-midpoints="false" inkscape:snap-page="false" inkscape:pagecheckerboard="0"><sodipodi:guide position="0,1000" orientation="0,1" id="guide16" inkscape:label="" inkscape:locked="true" inkscape:color="rgb(0,0,255)" /><sodipodi:guide position="1763.3122,2036.1693" orientation="1000,0" id="guide18" /><sodipodi:guide position="0,200" orientation="0,1" id="guide20" inkscape:label="base" inkscape:locked="true" inkscape:color="rgb(0,0,255)" /><inkscape:grid type="xygrid" id="grid24" originx="-473.37552" originy="-489.69235" /><sodipodi:guide position="0,0" orientation="0,1" id="guide34" inkscape:label="bottom" inkscape:locked="true" inkscape:color="rgb(0,0,255)" /><sodipodi:guide position="225.05109,1693.3186" orientation="0,1" id="guide44" inkscape:label="" inkscape:locked="false" inkscape:color="rgb(0,0,255)" /><sodipodi:guide position="0,900" orientation="0,1" id="guide46" inkscape:label="" inkscape:locked="true" inkscape:color="rgb(0,0,255)" /><sodipodi:guide position="586.07196,815.15923" orientation="-1,0" id="guide841" inkscape:label="width" inkscape:locked="false" inkscape:color="rgb(0,0,255)" /><sodipodi:guide position="0,1000" orientation="0,1000" id="guide860" /><sodipodi:guide position="1000,1000" orientation="1000,0" id="guide862" /><sodipodi:guide position="1000,0" orientation="0,-1000" id="guide864" /><sodipodi:guide position="0,0" orientation="-1000,0" id="guide866" /></sodipodi:namedview>
 <svg:defs id="defs4"><inkscape:path-effect effect="fillet_chamfer" id="path-effect855" is_visible="true" lpeversion="1" satellites_param="F,0,0,1,0,0,0,1 @ F,0,0,1,0,0,0,1 @ F,0,0,1,0,0,0,1 @ F,0,0,1,0,0,0,1 @ F,0,0,1,0,0,0,1 @ F,0,0,1,0,0,0,1 @ F,0,0,1,0,0,0,1 @ F,0,0,1,0,0,0,1 @ F,0,0,1,0,0,0,1 @ F,0,0,1,0,0,0,1 @ F,0,0,1,0,0,0,1 @ F,0,0,1,0,0,0,1 @ F,0,1,1,0,41.979761,0,1 @ F,0,1,1,0,41.979761,0,1 @ F,0,0,1,0,0,0,1 @ F,0,0,1,0,0,0,1 @ F,0,0,1,0,0,0,1 @ F,0,0,1,0,0,0,1 @ F,0,0,1,0,0,0,1 @ F,0,0,1,0,0,0,1 @ F,0,0,1,0,0,0,1 @ F,0,0,1,0,0,0,1 @ F,0,0,1,0,0,0,1 @ F,0,0,1,0,0,0,1 @ F,0,0,1,0,0,0,1" unit="px" method="auto" mode="F" radius="0" chamfer_steps="1" flexible="false" use_knot_distance="true" apply_no_radius="true" apply_with_radius="true" only_selected="true" hide_knots="false" /><inkscape:path-effect effect="spiro" id="path-effect858" is_visible="true" lpeversion="1" /><inkscape:path-effect effect="spiro" id="path-effect854" is_visible="true" lpeversion="1" />
  <svg:style type="text/css" id="style2">
   
    .fil0 {fill:#EF7F1A;fill-rule:nonzero}
   
  </svg:style>
 <inkscape:path-effect effect="spiro" id="path-effect1214" is_visible="true" lpeversion="1" /><inkscape:path-effect effect="spiro" id="path-effect1195" is_visible="true" lpeversion="1" /><inkscape:path-effect effect="spiro" id="path-effect992" is_visible="true" lpeversion="1" /><inkscape:path-effect effect="spiro" id="path-effect287" is_visible="true" lpeversion="1" /><inkscape:path-effect effect="spiro" id="path-effect1032" is_visible="true" lpeversion="1" /><inkscape:path-effect effect="spiro" id="path-effect1218" is_visible="true" lpeversion="1" /><inkscape:path-effect effect="spiro" id="path-effect309" is_visible="true" lpeversion="1" /><inkscape:path-effect effect="spiro" id="path-effect1525" is_visible="true" lpeversion="1" /><inkscape:path-effect effect="spiro" id="path-effect1343" is_visible="true" lpeversion="1" /></svg:defs>
 
<svg:g id="path979-0-6-9"><svg:path style="color:#000000;clip-rule:nonzero;fill:#1a5fb4;fill-rule:nonzero;stroke-linecap:round;stroke-linejoin:round;-inkscape-stroke:none;paint-order:fill stroke markers;shape-rendering:auto" d="M 554.58203,679.14648 C 547.36041,679.41256 540.14376,680.87966 533.3242200000001,683.43359 L 496.9511700000001,697.05664 C 460.7946500000001,710.59735 440.5370400000001,743.1533400000001 435.7168000000001,777.5644500000001 C 430.8656100000001,812.19644 418.8700400000001,845.9391 400.6699200000001,875.6660200000001 C 394.5387700000001,885.6802400000001 387.5764700000001,895.2025600000001 380.0859400000001,904.3281200000001 C 369.3587100000001,895.3460300000002 358.09631000000013,886.9931300000002 346.2363300000001,879.5136700000002 C 292.2491000000001,845.4668100000001 227.98113000000012,828.4654900000002 163.98242000000013,832.4043000000001 C 119.68263000000013,835.1307300000002 74.13462800000013,848.1102700000001 36.57421900000013,876.6191400000001 C 17.777133000000127,890.8863900000001 1.3919200000001268,908.8098900000001 -10.64843799999987,929.9296900000002 C -22.71622899999987,951.0976100000001 -30.17304799999987,975.1278400000001 -31.218749999999872,1000.1777000000002 C -32.65675499999987,1034.6253000000002 -21.857321999999872,1067.9068000000002 -3.1210937999998727,1095.4023000000002 C 15.522632000000126,1122.7621000000001 41.34353300000012,1143.6981000000003 69.89062500000013,1157.8789000000002 C 126.77609000000012,1186.1368000000002 190.78369000000015,1186.7588 248.56055000000015,1176.4043000000001 C 354.8579100000002,1157.3542000000002 453.7000800000002,1099.4666000000002 520.1640600000002,1013.6504000000002 C 562.9572500000002,958.3971700000002 591.4643000000002,893.1607300000002 605.0507800000001,825.2285200000002 C 610.7109600000001,796.9276800000002 613.8141800000002,768.1384200000002 614.3378900000001,739.2968700000002 C 614.7004300000001,719.3310000000002 605.3235900000001,699.1928600000002 588.9199200000002,688.3652300000002 C 578.6676300000001,681.5979700000003 566.6180700000002,678.7030300000002 554.5820300000001,679.1464800000002 L 554.58203,679.14648 M 554.2890600000001,739.65234 C 553.7545100000001,764.4320799999999 551.07478,789.1711 546.2168,813.4609399999999 C 534.3527300000001,872.7811099999999 509.39773,929.5640199999999 472.72852,976.9101599999999 C 466.45944000000003,985.0045899999999 459.77291,992.7745999999999 452.81641,1000.3027 A 30.003,30.003 0.0 0,0 448.61914,984.68359 C 440.84506,971.59008 432.01688,959.1801399999999 422.44336000000004,947.38281 C 433.22409000000005,934.74236 443.09618000000006,921.27744 451.83984000000004,906.99609 C 474.44589,870.07282 489.14851000000004,828.63578 495.13672,785.88672 C 496.7431,774.4189299999999 510.72448,755.96592 517.99219,753.24414 L 554.2890600000001,739.65234 M 186.78906000000006,891.90234 C 231.47430000000006,892.8142 276.30106000000006,906.3455799999999 314.2304700000001,930.26562 C 322.0920500000001,935.2235000000001 329.6534600000001,940.6714900000001 336.9316400000001,946.48437 C 328.8746700000001,952.8241800000001 320.4578200000001,958.70297 311.75977000000006,964.17969 C 306.78220000000005,959.6642 301.71771000000007,955.24255 296.4726600000001,951.03125 C 260.85568000000006,922.43408 217.89839000000006,900.19519 170.1132800000001,893.61328 C 167.5416700000001,893.2590700000001 164.77926000000008,893.06424 162.0878900000001,892.80273 C 163.9498400000001,892.64049 165.7994600000001,892.40601 167.6679700000001,892.29102 C 174.02527000000012,891.89975 180.40546000000012,891.77208 186.78906000000012,891.90234 L 186.78906000000006,891.90234 M 75.871094,922.33203 C 68.66530399999999,930.91522 63.106021,941.18587 60.625,953.08594 C 58.232818,964.5599000000001 58.951703,975.86589 61.818359,986.2890600000001 C 64.66711000000001,996.6471300000001 69.530085,1005.7702 75.458984,1013.5996 C 87.260305,1029.1839 102.49149,1038.9396 116.8457,1045.7988 C 148.56053,1060.9539 183.444,1065.1580000000001 216.57422,1061.875 C 246.19583,1058.9397 274.00672,1050.0373 299.77539,1038.4629 C 309.86957,1050.8083 318.95892000000003,1063.9701 326.75977,1077.8438 A 30.003,30.003 0.0 0,0 334.52344,1086.4082 C 303.82466,1100.8419000000001 271.27723,1111.3777 237.97656,1117.3457 C 188.39181000000002,1126.2321000000002 137.38224000000002,1124.4111 96.58398400000002,1104.1445 C 76.28922000000001,1094.0631 58.529333000000015,1079.3228000000001 46.46289100000001,1061.6152000000002 C 34.48895000000002,1044.0434000000002 27.891907000000014,1022.7207000000002 28.728516000000013,1002.6797000000001 C 29.340055000000014,988.0302000000001 33.86347100000001,972.9970600000001 41.474609000000015,959.6464800000001 C 49.113182000000016,946.2477900000001 59.995041000000015,934.1674200000001 72.84765600000001,924.4121100000001 C 73.81755000000001,923.6759500000001 74.87795800000002,923.0423800000001 75.87109400000001,922.3320300000001 L 75.871094,922.33203 M 144.47656,952.13867 C 149.71369,951.8734300000001 155.60198,952.1797700000001 161.92578,953.05078 C 193.66897,957.42308 224.80306000000002,972.16309 252.25977,992.77148 C 238.43468000000001,997.41275 224.50284,1000.7959 210.65625,1002.168 C 186.77055000000001,1004.5349 162.69612,1001.2103 142.71483999999998,991.66211 C 133.82684999999998,987.41494 127.04258999999998,982.32852 123.29296999999998,977.37695 C 121.44639999999998,974.93846 120.23858999999999,972.4375299999999 119.67187999999999,970.37695 C 119.12306999999998,968.38148 119.12475999999998,966.4667099999999 119.36132999999998,965.3320299999999 C 119.63937999999997,963.9983599999999 120.70778999999997,961.7848299999999 122.48241999999998,959.94922 C 124.34204999999997,958.02568 127.30144999999997,956.04387 130.93554999999998,954.6582 C 134.65318999999997,953.24068 139.23943999999997,952.40391 144.47655999999998,952.1386699999999 L 144.47656,952.13867 M 379.27148,989.36328 C 380.7293,991.2375900000001 382.10761,993.16647 383.51171999999997,995.0800800000001 L 359.03515999999996,1017.1855 C 357.0612,1014.4376000000001 355.09450999999996,1011.6849000000001 353.03905999999995,1008.998 C 362.10297999999995,1002.9000000000001 370.80746999999997,996.28722 379.27147999999994,989.36328 L 379.27148,989.36328" id="path18921" /></svg:g></svg:svg>

<svg:svg xmlns:cc="http://creativecommons.org/ns#" xmlns:dc="http://purl.org/dc/elements/1.1/" xmlns:inkscape="http://www.inkscape.org/namespaces/inkscape" xmlns:rdf="http://www.w3.org/1999/02/22-rdf-syntax-ns#" xmlns:sodipodi="http://sodipodi.sourceforge.net/DTD/sodipodi-0.dtd" xmlns:svg="http://www.w3.org/2000/svg" xml:space="preserve" width="1000" height="1000" version="1.1" style="clip-rule:evenodd;fill-rule:evenodd;image-rendering:optimizeQuality;shape-rendering:geometricPrecision;text-rendering:geometricPrecision" viewBox="0 0 1000 1000" id="svg10" sodipodi:docname="ru_bottom_sign.svg" inkscape:version="1.0.2 (e86c870879, 2021-01-15)"><svg:metadata id="metadata14"><rdf:RDF><cc:Work rdf:about=""><dc:format>image/svg+xml</dc:format><dc:type rdf:resource="http://purl.org/dc/dcmitype/StillImage" /><dc:title /></cc:Work></rdf:RDF></svg:metadata><sodipodi:namedview pagecolor="#ffffff" bordercolor="#666666" borderopacity="1" objecttolerance="10" gridtolerance="10" guidetolerance="10" inkscape:pageopacity="0" inkscape:pageshadow="2" inkscape:window-width="1920" inkscape:window-height="1007" id="namedview12" showgrid="false" inkscape:zoom="0.56343695" inkscape:cx="447.85495" inkscape:cy="430.9006" inkscape:window-x="1920" inkscape:window-y="0" inkscape:window-maximized="1" inkscape:current-layer="svg10" showguides="true" inkscape:guide-bbox="true" inkscape:document-rotation="0" inkscape:snap-object-midpoints="false" inkscape:snap-page="false" inkscape:pagecheckerboard="0"><sodipodi:guide position="0,1000" orientation="0,1" id="guide16" inkscape:label="" inkscape:locked="true" inkscape:color="rgb(0,0,255)" /><sodipodi:guide position="1763.3122,2036.1693" orientation="1000,0" id="guide18" /><sodipodi:guide position="0,200" orientation="0,1" id="guide20" inkscape:label="base" inkscape:locked="true" inkscape:color="rgb(0,0,255)" /><inkscape:grid type="xygrid" id="grid24" originx="-473.37552" originy="-489.69235" /><sodipodi:guide position="0,0" orientation="0,1" id="guide34" inkscape:label="bottom" inkscape:locked="true" inkscape:color="rgb(0,0,255)" /><sodipodi:guide position="225.05109,1693.3186" orientation="0,1" id="guide44" inkscape:label="" inkscape:locked="false" inkscape:color="rgb(0,0,255)" /><sodipodi:guide position="0,900" orientation="0,1" id="guide46" inkscape:label="" inkscape:locked="true" inkscape:color="rgb(0,0,255)" /><sodipodi:guide position="586.07196,815.15923" orientation="-1,0" id="guide841" inkscape:label="width" inkscape:locked="false" inkscape:color="rgb(0,0,255)" /><sodipodi:guide position="0,1000" orientation="0,1000" id="guide860" /><sodipodi:guide position="1000,1000" orientation="1000,0" id="guide862" /><sodipodi:guide position="1000,0" orientation="0,-1000" id="guide864" /><sodipodi:guide position="0,0" orientation="-1000,0" id="guide866" /></sodipodi:namedview>
 <svg:defs id="defs4"><inkscape:path-effect effect="fillet_chamfer" id="path-effect855" is_visible="true" lpeversion="1" satellites_param="F,0,0,1,0,0,0,1 @ F,0,0,1,0,0,0,1 @ F,0,0,1,0,0,0,1 @ F,0,0,1,0,0,0,1 @ F,0,0,1,0,0,0,1 @ F,0,0,1,0,0,0,1 @ F,0,0,1,0,0,0,1 @ F,0,0,1,0,0,0,1 @ F,0,0,1,0,0,0,1 @ F,0,0,1,0,0,0,1 @ F,0,0,1,0,0,0,1 @ F,0,0,1,0,0,0,1 @ F,0,1,1,0,41.979761,0,1 @ F,0,1,1,0,41.979761,0,1 @ F,0,0,1,0,0,0,1 @ F,0,0,1,0,0,0,1 @ F,0,0,1,0,0,0,1 @ F,0,0,1,0,0,0,1 @ F,0,0,1,0,0,0,1 @ F,0,0,1,0,0,0,1 @ F,0,0,1,0,0,0,1 @ F,0,0,1,0,0,0,1 @ F,0,0,1,0,0,0,1 @ F,0,0,1,0,0,0,1 @ F,0,0,1,0,0,0,1" unit="px" method="auto" mode="F" radius="0" chamfer_steps="1" flexible="false" use_knot_distance="true" apply_no_radius="true" apply_with_radius="true" only_selected="true" hide_knots="false" /><inkscape:path-effect effect="spiro" id="path-effect858" is_visible="true" lpeversion="1" /><inkscape:path-effect effect="spiro" id="path-effect854" is_visible="true" lpeversion="1" />
  <svg:style type="text/css" id="style2">
   
    .fil0 {fill:#EF7F1A;fill-rule:nonzero}
   
  </svg:style>
 <inkscape:path-effect effect="spiro" id="path-effect1214" is_visible="true" lpeversion="1" /><inkscape:path-effect effect="spiro" id="path-effect1195" is_visible="true" lpeversion="1" /><inkscape:path-effect effect="spiro" id="path-effect992" is_visible="true" lpeversion="1" /><inkscape:path-effect effect="spiro" id="path-effect287" is_visible="true" lpeversion="1" /><inkscape:path-effect effect="spiro" id="path-effect1032" is_visible="true" lpeversion="1" /><inkscape:path-effect effect="spiro" id="path-effect1218" is_visible="true" lpeversion="1" /><inkscape:path-effect effect="spiro" id="path-effect309" is_visible="true" lpeversion="1" /><inkscape:path-effect effect="spiro" id="path-effect1525" is_visible="true" lpeversion="1" /><inkscape:path-effect effect="spiro" id="path-effect1343" is_visible="true" lpeversion="1" /></svg:defs>
 
<svg:g id="path979-0-6-9"><svg:path style="color:#000000;clip-rule:nonzero;fill:#1a5fb4;fill-rule:nonzero;stroke-linecap:round;stroke-linejoin:round;-inkscape-stroke:none;shape-rendering:auto" d="m 554.58203,679.14648 c -7.22162,0.26608 -14.43827,1.73318 -21.25781,4.28711 l -36.37305,13.62305 c -36.15652,13.54071 -56.41413,46.0967 -61.23437,80.50781 -4.85119,34.63199 -16.84676,68.37465 -35.04688,98.10157 -6.13115,10.01422 -13.09345,19.53654 -20.58398,28.6621 -10.72723,-8.98209 -21.98963,-17.33499 -33.84961,-24.81445 -53.98723,-34.04686 -118.2552,-51.04818 -182.25391,-47.10937 -44.29979,2.72643 -89.847792,15.70597 -127.408201,44.21484 -18.797086,14.26725 -35.182299,32.19075 -47.222657,53.31055 -12.067791,21.16792 -19.52461,45.19815 -20.570312,70.24801 -1.438005,34.4476 9.361428,67.7291 28.0976562,95.2246 18.6437258,27.3598 44.4646268,48.2958 73.0117188,62.4766 56.885465,28.2579 120.893065,28.8799 178.669925,18.5254 106.29736,-19.0501 205.13953,-76.9377 271.60351,-162.7539 42.79319,-55.25323 71.30024,-120.48967 84.88672,-188.42188 5.66018,-28.30084 8.7634,-57.0901 9.28711,-85.93165 0.36254,-19.96587 -9.0143,-40.10401 -25.41797,-50.93164 -10.25229,-6.76726 -22.30185,-9.6622 -34.33789,-9.21875 z m -0.29297,60.50586 c -0.53455,24.77974 -3.21428,49.51876 -8.07226,73.8086 -11.86407,59.32017 -36.81907,116.10308 -73.48828,163.44922 -6.26908,8.09443 -12.95561,15.86444 -19.91211,23.39254 a 30.003,30.003 0 0 0 -4.19727,-15.61911 c -7.77408,-13.09351 -16.60226,-25.50345 -26.17578,-37.30078 10.78073,-12.64045 20.65282,-26.10537 29.39648,-40.38672 22.60605,-36.92327 37.30867,-78.36031 43.29688,-121.10937 1.60638,-11.46779 15.58776,-29.9208 22.85547,-32.64258 z m -367.5,152.25 c 44.68524,0.91186 89.512,14.44324 127.44141,38.36328 7.86158,4.95788 15.42299,10.40587 22.70117,16.21875 -8.05697,6.33981 -16.47382,12.2186 -25.17187,17.69532 -4.97757,-4.51549 -10.04206,-8.93714 -15.28711,-13.14844 -35.61698,-28.59717 -78.57427,-50.83606 -126.35938,-57.41797 -2.57161,-0.35421 -5.33402,-0.54904 -8.02539,-0.81055 1.86195,-0.16224 3.71157,-0.39672 5.58008,-0.51171 6.3573,-0.39127 12.73749,-0.51894 19.12109,-0.38868 z M 75.871094,922.33203 c -7.20579,8.58319 -12.765073,18.85384 -15.246094,30.75391 -2.392182,11.47396 -1.673297,22.77995 1.193359,33.20312 2.848751,10.35807 7.711726,19.48114 13.640625,27.31054 11.801321,15.5843 27.032506,25.34 41.386716,32.1992 31.71483,15.1551 66.5983,19.3592 99.72852,16.0762 29.62161,-2.9353 57.4325,-11.8377 83.20117,-23.4121 10.09418,12.3454 19.18353,25.5072 26.98438,39.3809 a 30.003,30.003 0 0 0 7.76367,8.5644 c -30.69878,14.4337 -63.24621,24.9695 -96.54688,30.9375 -49.58475,8.8864 -100.59432,7.0654 -141.392576,-13.2012 -20.294764,-10.0814 -38.054651,-24.8217 -50.121093,-42.5293 -11.973941,-17.5718 -18.570984,-38.8945 -17.734375,-58.9355 0.611539,-14.6495 5.134955,-29.68264 12.746093,-43.03322 7.638573,-13.39869 18.520432,-25.47906 31.373047,-35.23437 0.969894,-0.73616 2.030302,-1.36973 3.023438,-2.08008 z m 68.605466,29.80664 c 5.23713,-0.26524 11.12542,0.0411 17.44922,0.91211 31.74319,4.3723 62.87728,19.11231 90.33399,39.7207 -13.82509,4.64127 -27.75693,8.02442 -41.60352,9.39652 -23.8857,2.3669 -47.96013,-0.9577 -67.94141,-10.50589 -8.88799,-4.24717 -15.67225,-9.33359 -19.42187,-14.28516 -1.84657,-2.43849 -3.05438,-4.93942 -3.62109,-7 -0.54881,-1.99547 -0.54712,-3.91024 -0.31055,-5.04492 0.27805,-1.33367 1.34646,-3.5472 3.12109,-5.38281 1.85963,-1.92354 4.81903,-3.90535 8.45313,-5.29102 3.71764,-1.41752 8.30389,-2.25429 13.54101,-2.51953 z m 234.79492,37.22461 c 1.45782,1.87431 2.83613,3.80319 4.24024,5.7168 l -24.47656,22.10542 c -1.97396,-2.7479 -3.94065,-5.5006 -5.9961,-8.1875 9.06392,-6.098 17.76841,-12.71078 26.23242,-19.63472 z" id="path18869" /></svg:g></svg:svg>
